X: 74
T: Miss Geddes's Strathspey
R: strathspey
Q: "Slow"
B: William Shepherd "1st Collection" 1793 p.7 #4
F: http://imslp.org/wiki/File:PMLP73094-Shepherd_Collections_HMT.pdf
C: William Shepherd (17??-1812)
Z: 2012 John Chambers <jc:trillian.mit.edu>
M: C
L: 1/16
K: Am
CB, |\
A,2A2A2B2 c2A2 cBAG | B,2[G2B,2][G2B,2]B2 d2g2 cBAG |\
A,2A2A2B2 c2A2 cBAG | B2g2 edcB A4 A2 :|
cB |\
A2a2-a2e2 Tc2d2 fedc | B2g2g2d2 Bcdc cBAG |\
A2a2-a2e2 c2d2 fedc | e2E2 edcB A4 A2 ||
cB |\
A2a2-a2e2 c2d2 fedc | B2g2g2d2 Bcdc cBAG |\
A2E2c2A2 d2B2E2C2 | B,2[G2B,2] EDCB, {B,}A,4 A,2 |]
